resources/svg/yen.svg

<svg xmlns="http://www.w3.org/2000/svg" viewBox="0 0 15 15" fill="currentColor"><path fill-rule="evenodd" clip-rule="evenodd" d="M6.52841 7H3.00001V8H7.00001V11H3.00001V12H7.00001V15H8.00001V12H12V11H8.00001V8H12V7H8.4716L12.9069 0.790619L12.0931 0.209381L7.50001 6.63977L2.90687 0.209381L2.09314 0.790619L6.52841 7Z" fill="black"/></svg>

<svg xmlns="http://www.w3.org/2000/svg" viewBox="0 0 15 15" fill="currentColor"><path fill-rule="evenodd" clip-rule="evenodd" d="M6.528 7H3v1h4v3H3v1h4v3h1v-3h4v-1H8V8h4V7H8.472L12.907.79l-.814-.58L7.5 6.64 2.907.21l-.814.58L6.528 7z" fill="currentColor"/></svg>
